src/pos-icons/home-export-outline.svg

<svg height="24" viewBox="0 0 24 24" width="24" xmlns="http://www.w3.org/2000/svg"><path d="m24 13-4-4v3h-9v2h9v3m-2-1v5h-16v-9h-2l10-10 8 8h-3l-5-5-6 6v8h12v-3z"/></svg>

<?xml version="1.0" encoding="UTF-8"?><!DOCTYPE svg PUBLIC "-//W3C//DTD SVG 1.1//EN" "http://www.w3.org/Graphics/SVG/1.1/DTD/svg11.dtd"><svg xmlns="http://www.w3.org/2000/svg" xmlns:xlink="http://www.w3.org/1999/xlink" version="1.1" id="mdi-home-export-outline" width="24" height="24" viewBox="0 0 24 24"><path d="M24 13L20 9V12H11V14H20V17M18 16V21H2V12H0L10 2L18 10H15L10 5L4 11V19H16V16H18Z" /></svg>
